icons/plexis/48/frescobaldi.svg

<svg viewBox="0 0 48 48" xmlns="http://www.w3.org/2000/svg" xmlns:xlink="http://www.w3.org/1999/xlink">
  <linearGradient id="a" gradientTransform="matrix(0 -1 1 0 -.0000015 47.999998)" gradientUnits="userSpaceOnUse" x1="1" x2="47">
    <stop offset="0" stop-color="#0cbe82"/>
    <stop offset="1" stop-color="#0dd18f"/>
  </linearGradient>
  <radialGradient id="b" cx="6.77333341" cy="6.77333358" gradientUnits="userSpaceOnUse" r="3.95111115">
    <stop offset="0" stop-color="#fe1058"/>
    <stop offset="1" stop-color="#fe4c82"/>
  </radialGradient>
  <radialGradient id="c" cx="14" cy="10" gradientTransform="matrix(.24120755 -.10238654 .10238654 .24120755 2.3725625 5.7946693)" gradientUnits="userSpaceOnUse" r="15.535">
    <stop offset="0" stop-color="#ffabcb"/>
    <stop offset="1" stop-color="#ff619c"/>
  </radialGradient>
  <radialGradient id="d" cx="6.77333341" cy="6.77333331" gradientUnits="userSpaceOnUse" r="2.25777783">
    <stop offset="0" stop-color="#f0e598"/>
    <stop offset="1" stop-color="#fce11a"/>
  </radialGradient>
  <path d="m47 24c0 22.703-.297 23-23 23-22.703 0-23-.297-23-23 0-22.703.297-23 23-23 22.703 0 23 .297 23 23z" fill="url(#a)"/>
  <path d="m25 10l-2.094 4.906-3.906-3.906.281 5-5.281-2 2 5.281-5-.281 3.875 3.875-4.875 2.063 4.906 2.156-3.906 3.906 5-.281-2 5.281 5.281-2-.281 5 3.906-3.906 2.094 4.906 2.063-4.781 3.531 3.781-.063-5.063 5.469 2.062-2-5.281 5 .281-3.875-3.875 4.875-2.063-4.906-2.156 3.906-3.906-5 .281 2-5.281-5.281 2 .281-5-3.906 3.906-2.094-4.906" fill-opacity=".098"/>
  <g transform="matrix(3.543307 0 0 3.543307 .00354353 -.0000001)">
    <path d="m8.354 10.724l-1.58-1.693-1.693 1.693.141-2.399-2.399.141 1.693-1.693-1.693-1.693 2.399.141-.141-2.399 1.693 1.693 1.693-1.693-.141 2.399 2.399-.141-1.693 1.693 1.693 1.693-2.399-.141z" fill="url(#b)"/>
    <path d="m7.479 3.81l-.706.706-.309-.309-.256.591-.767-.282-.265-.106.044.811-.811-.044.106.265.282.767-.6.247.317.317-.697.697.388.176.591.256-.168.459.591-.035-.079 1.385.3-.115.767-.282.088.194.476-.476.855.917.009-.009.265-.626.432.159-.009-1.147 1.173.071-.185-.494.6-.247-.882-.882.476-.476-.194-.088.282-.767.115-.3-1.385.079.035-.591-.459.168-.256-.591-.168-.397z" fill-opacity=".098"/>
    <path d="m9.878 9.878l-2.258-.847-.847 1.976-.847-1.976-2.258.847.847-2.258-1.976-.861 1.976-.832-.847-2.258 2.258.847.847-1.976.847 1.976 2.258-.847-.847 2.258 1.976.861-1.976.832z" fill="url(#c)"/>
    <path d="m9.172 6.914a2.258 2.258 0 0 1-4.516 0 2.258 2.258 0 1 1  4.516 0z" fill-opacity=".098"/>
    <path d="m9.03 6.773a2.258 2.258 0 0 1-4.516 0 2.258 2.258 0 1 1  4.516 0z" fill="url(#d)"/>
    <path d="m6.245 8.242c-.195-.09-.266-.331-.275-.583-.006-.187.002-.23.038.035.035.257.273.54.5.54.368 0 .669-.385.669-.862 0-.117-.036-.177-.256-.187l-.256-.013.246-.029c.286-.025.256-.215.288-.527.023-.274.06-.568.083-.653.037-.141-.003-.163-.445-.249-.589-.115-.883-.064-1.119.193-.357.39-.102.913.45.923.256.004.274.015.144.084-.341.18-.84-.192-.84-.627 0-.672.637-.965 1.474-.677.355.122.365.121.669-.054.238-.138.327-.158.389-.09.124.135-.046.311-.351.364-.228.04-.26.073-.294.301-.021.141-.02.422.002.624.078.392.129.371.464.385-.316.051-.434.241-.488.443-.142.531-.674.852-1.093.658z" style="fill:#1a1a1a;stroke-miterlimit:4.5;stroke:#1a1a1a;stroke-linecap:round;stroke-linejoin:round;stroke-width:.109"/>
  </g>
</svg>

<svg xmlns="http://www.w3.org/2000/svg" viewBox="0 0 48 48">
 <defs>
  <linearGradient id="linearGradient3764" x1="1" x2="47" gradientUnits="userSpaceOnUse" gradientTransform="matrix(0,-1,1,0,-1.5e-6,47.999998)">
   <stop style="stop-color:#0cbe82;stop-opacity:1"/>
   <stop offset="1" style="stop-color:#0dd18f;stop-opacity:1"/>
  </linearGradient>
  <radialGradient id="radialGradient4125" gradientUnits="userSpaceOnUse" cx="21" cy="8" r="15" gradientTransform="matrix(0.26340741,0,0,0.26340741,1.2417778,4.6660743)">
   <stop style="stop-color:#fe1058;stop-opacity:1"/>
   <stop offset="1" style="stop-color:#fe4c82;stop-opacity:1"/>
  </radialGradient>
  <radialGradient id="radialGradient4122" gradientUnits="userSpaceOnUse" cx="14" cy="10" r="15.535" gradientTransform="matrix(0.24120755,-0.10238654,0.10238654,0.24120755,2.3725625,5.7946693)">
   <stop style="stop-color:#ffabcb;stop-opacity:1"/>
   <stop offset="1" style="stop-color:#ff619c;stop-opacity:1"/>
  </radialGradient>
  <radialGradient id="radialGradient4204-6" cx="24.5" cy="24.5" r="3.5" gradientUnits="userSpaceOnUse" gradientTransform="matrix(0.64507938,0,0,0.64507938,-9.0311114,-9.0311115)">
   <stop style="stop-color:#f0e598;stop-opacity:1"/>
   <stop offset="1" style="stop-color:#fce11a;stop-opacity:1"/>
  </radialGradient>
 </defs>
 <g>
  
  
  
 </g>
 <g>
  <path d="m 47,24 C 47,46.703 46.703,47 24,47 1.297,47 1,46.703 1,24 1,1.297 1.297,1 24,1 46.703,1 47,1.297 47,24 z" style="fill:url(#linearGradient3764);fill-opacity:1"/>
 </g>
 <g>
  
 </g>
 <path d="m 25 10 -2.094 4.906 -3.906 -3.906 l 0.281 5 -5.281 -2 2 5.281 -5 -0.281 3.875 3.875 -4.875 2.063 4.906 2.156 -3.906 3.906 5 -0.281 -2 5.281 l 5.281 -2 l -0.281 5 3.906 -3.906 2.094 4.906 2.063 -4.781 3.531 3.781 -0.063 -5.063 5.469 2.062 -2 -5.281 5 0.281 -3.875 -3.875 4.875 -2.063 -4.906 -2.156 3.906 -3.906 -5 0.281 l 2 -5.281 -5.281 2 0.281 -5 -3.906 3.906 -2.094 -4.906" style="fill:#000;fill-opacity:0.098;stroke:none;fill-rule:nonzero"/>
 <g transform="matrix(3.543307,0,0,3.543307,0.00354353,-9.9999994e-8)">
  <path d="M 8.354,10.724 6.774,9.031 5.081,10.724 5.222,8.325 2.823,8.466 4.516,6.773 2.823,5.08 5.222,5.221 5.081,2.822 6.774,4.515 8.467,2.822 8.326,5.221 10.725,5.08 9.032,6.773 10.725,8.466 8.326,8.325 Z" style="fill:url(#radialGradient4125);fill-opacity:1;stroke:none;fill-rule:nonzero"/>
  <g>
   <path d="M 7.479,3.81 6.773,4.516 6.464,4.207 6.208,4.798 5.441,4.516 5.176,4.41 5.22,5.221 4.409,5.177 4.515,5.442 4.797,6.209 4.197,6.456 4.514,6.773 3.817,7.47 4.205,7.646 4.796,7.902 4.628,8.361 5.219,8.326 5.14,9.711 5.44,9.596 6.207,9.314 6.295,9.508 6.771,9.032 7.626,9.949 7.635,9.94 7.9,9.314 8.332,9.473 8.323,8.326 9.496,8.397 9.311,7.903 9.911,7.656 9.029,6.774 9.505,6.298 9.311,6.21 9.593,5.443 9.708,5.143 8.323,5.222 8.358,4.631 7.899,4.799 7.643,4.208 7.475,3.811 Z" style="fill:#000;fill-opacity:0.098;stroke:none;fill-rule:nonzero"/>
   <path d="M 9.878,9.878 7.62,9.031 6.773,11.007 5.926,9.031 3.668,9.878 4.515,7.62 2.539,6.759 4.515,5.927 3.668,3.669 5.926,4.516 6.773,2.54 7.62,4.516 9.878,3.669 9.031,5.927 11.007,6.788 9.031,7.62 Z" style="fill:url(#radialGradient4122);fill-opacity:1;stroke:none;fill-rule:nonzero"/>
   <path d="m 9.172 6.914 a 2.258 2.258 0 0 1 -4.516 0 2.258 2.258 0 1 1 4.516 0 z" style="fill:#000;fill-opacity:0.098;stroke:none;fill-rule:nonzero"/>
   <path d="m 9.03 6.773 a 2.258 2.258 0 0 1 -4.516 0 2.258 2.258 0 1 1 4.516 0 z" style="fill:url(#radialGradient4204-6);fill-opacity:1;stroke:none;fill-rule:nonzero"/>
   <path d="M 6.245,8.242 C 6.05,8.152 5.979,7.911 5.97,7.659 5.964,7.472 5.972,7.429 6.008,7.694 c 0.035,0.257 0.273,0.54 0.5,0.54 0.368,0 0.669,-0.385 0.669,-0.862 0,-0.117 -0.036,-0.177 -0.256,-0.187 L 6.665,7.172 6.911,7.143 C 7.197,7.118 7.167,6.928 7.199,6.616 7.222,6.342 7.259,6.048 7.282,5.963 7.319,5.822 7.279,5.8 6.837,5.714 6.248,5.599 5.954,5.65 5.718,5.907 5.361,6.297 5.616,6.82 6.168,6.83 6.424,6.834 6.442,6.845 6.312,6.914 5.971,7.094 5.472,6.722 5.472,6.287 5.472,5.615 6.109,5.322 6.946,5.61 7.301,5.732 7.311,5.731 7.615,5.556 7.853,5.418 7.942,5.398 8.004,5.466 8.128,5.601 7.958,5.777 7.653,5.83 7.425,5.87 7.393,5.903 7.359,6.131 7.338,6.272 7.339,6.553 7.361,6.755 7.439,7.147 7.49,7.126 7.825,7.14 7.509,7.191 7.391,7.381 7.337,7.583 7.195,8.114 6.663,8.435 6.244,8.241 Z" style="stroke-dasharray:none;stroke-opacity:1;fill:#1a1a1a;stroke-miterlimit:4.5;stroke:#1a1a1a;stroke-linecap:round;stroke-linejoin:round;stroke-width:0.109"/>
  </g>
 </g>
</svg>
